austria/municipalities/20812.svg

<?xml version="1.0" encoding="UTF-8" standalone="no"?>
<!-- Created with Inkscape (http://www.inkscape.org/) -->
<svg
   xmlns:dc="http://purl.org/dc/elements/1.1/"
   xmlns:cc="http://web.resource.org/cc/"
   xmlns:rdf="http://www.w3.org/1999/02/22-rdf-syntax-ns#"
   xmlns:svg="http://www.w3.org/2000/svg"
   xmlns="http://www.w3.org/2000/svg"
   xmlns:xlink="http://www.w3.org/1999/xlink"
   xmlns:sodipodi="http://inkscape.sourceforge.net/DTD/sodipodi-0.dtd"
   xmlns:inkscape="http://www.inkscape.org/namespaces/inkscape"
   width="690.09003"
   height="780.35999"
   id="svg1332"
   sodipodi:version="0.32"
   inkscape:version="0.43"
   sodipodi:docname="wappen_ruden.svg"
   version="1.0"
   sodipodi:docbase="D:\grafik\wappen">
  <defs
     id="defs3" />
  <sodipodi:namedview
     inkscape:document-units="mm"
     id="base"
     pagecolor="#ffffff"
     bordercolor="#666666"
     borderopacity="1.0"
     inkscape:pageopacity="0.0"
     inkscape:pageshadow="2"
     inkscape:zoom="0.70710678"
     inkscape:cx="435.17982"
     inkscape:cy="398.79146"
     inkscape:current-layer="layer1"
     inkscape:window-width="1280"
     inkscape:window-height="753"
     inkscape:window-x="-4"
     inkscape:window-y="-4"
     showgrid="false"
     showguides="true"
     inkscape:guide-bbox="true" />
  <metadata
     id="metadata4">
    <rdf:RDF>
      <cc:Work
         rdf:about="">
        <dc:format>image/svg+xml</dc:format>
        <dc:type
           rdf:resource="http://purl.org/dc/dcmitype/StillImage" />
        <dc:title>Wappen Gemeinde Ruden</dc:title>
        <dc:date>24. Feb 2006</dc:date>
        <dc:creator>
          <cc:Agent>
            <dc:title>Michael Glanznig</dc:title>
          </cc:Agent>
        </dc:creator>
        <dc:rights>
          <cc:Agent>
            <dc:title />
          </cc:Agent>
        </dc:rights>
        <dc:description>Ruden, coat of arms</dc:description>
        <cc:license
           rdf:resource="http://creativecommons.org/licenses/by-sa/2.0/" />
      </cc:Work>
      <cc:License
         rdf:about="http://creativecommons.org/licenses/by-sa/2.0/at/">
        <cc:permits
           rdf:resource="http://web.resource.org/cc/Reproduction" />
        <cc:permits
           rdf:resource="http://web.resource.org/cc/Distribution" />
        <cc:requires
           rdf:resource="http://web.resource.org/cc/Notice" />
        <cc:requires
           rdf:resource="http://web.resource.org/cc/Attribution" />
        <cc:permits
           rdf:resource="http://web.resource.org/cc/DerivativeWorks" />
        <cc:requires
           rdf:resource="http://web.resource.org/cc/ShareAlike" />
      </cc:License>
    </rdf:RDF>
  </metadata>
  <g
     inkscape:label="Layer 1"
     inkscape:groupmode="layer"
     id="layer1">
    <a
       id="a3977" />
    <g
       id="g10358">
      <path
         sodipodi:nodetypes="ccccc"
         id="path1350"
         d="M 17.225331,22.785356 L 670.08245,23.995256 L 619.55665,562.81299 C 582.77565,831.849 92.17989,834.9833 65.21886,562.86804 L 17.225331,22.785356 z "
         style="fill:#ebebeb;fill-opacity:1;fill-rule:evenodd;stroke:none;stroke-width:12.81259823;stroke-linecap:butt;stroke-linejoin:miter;stroke-miterlimit:4;stroke-dasharray:none;stroke-opacity:1" />
      <g
         id="g10350">
        <path
           style="fill:none;fill-opacity:0.75;fill-rule:evenodd;stroke:#03995c;stroke-width:50;stroke-linecap:butt;stroke-linejoin:miter;stroke-miterlimit:4;stroke-dasharray:none;stroke-opacity:1"
           d="M 242.60664,22.026061 L 242.60664,278.11199 L 41.153697,278.11199"
           id="path1351"
           sodipodi:nodetypes="ccc" />
        <path
           style="fill:none;fill-opacity:0.75;fill-rule:evenodd;stroke:#03995c;stroke-width:50;stroke-linecap:butt;stroke-linejoin:miter;stroke-miterlimit:4;stroke-dasharray:none;stroke-opacity:1"
           d="M 335.51176,22.341514 C 335.51176,763.38942 335.51176,763.38942 335.51176,763.38942"
           id="path1353" />
        <path
           style="fill:none;fill-opacity:0.75;fill-rule:evenodd;stroke:#03995c;stroke-width:50;stroke-linecap:butt;stroke-linejoin:miter;stroke-miterlimit:4;stroke-dasharray:none;stroke-opacity:1"
           d="M 49.497475,374.62283 C 634.98189,374.62283 634.98189,374.62283 634.98189,374.62283"
           id="path1355"
           sodipodi:nodetypes="cc" />
        <path
           style="fill:none;fill-opacity:0.75;fill-rule:evenodd;stroke:#03995c;stroke-width:50.00000381;stroke-linecap:butt;stroke-linejoin:miter;stroke-miterlimit:4;stroke-dasharray:none;stroke-opacity:1"
           d="M 430.93342,21.82621 L 430.93342,278.09508 L 643.20642,278.09508"
           id="path3982" />
        <path
           style="fill:none;fill-opacity:0.75;fill-rule:evenodd;stroke:#03995c;stroke-width:49.99999619;stroke-linecap:butt;stroke-linejoin:miter;stroke-miterlimit:4;stroke-dasharray:none;stroke-opacity:1"
           d="M 242.08526,754.70311 L 242.08526,471.4037 L 60.632312,471.4037"
           id="path7480"
           sodipodi:nodetypes="ccc" />
        <path
           style="fill:none;fill-opacity:0.75;fill-rule:evenodd;stroke:#03995c;stroke-width:50;stroke-linecap:butt;stroke-linejoin:miter;stroke-miterlimit:4;stroke-dasharray:none;stroke-opacity:1"
           d="M 432.41204,753.19261 L 432.41204,472.65815 L 628.68504,472.65815"
           id="path7482"
           sodipodi:nodetypes="ccc" />
      </g>
      <path
         sodipodi:nodetypes="ccccc"
         id="path7531"
         d="M 18.579527,24.335116 L 671.43665,25.545016 L 620.91085,564.36275 C 584.12985,833.39876 93.53409,836.53306 66.57306,564.4178 L 18.579527,24.335116 z "
         style="fill:none;fill-opacity:1;fill-rule:evenodd;stroke:#000000;stroke-width:12.81259823;stroke-linecap:butt;stroke-linejoin:miter;stroke-miterlimit:4;stroke-dasharray:none;stroke-opacity:1" />
      <path
         sodipodi:nodetypes="ccccc"
         id="path10182"
         d="M 510.75429,289.04298 C 484.85094,317.00509 445.94692,296.78264 413.56301,294.5467 C 410.87758,262.61227 393.13771,232.0444 419.04106,204.0823 C 446.79018,172.04671 489.4381,188.0461 559.38583,144.56471 C 522.60695,218.77284 537.61873,260.0434 510.75429,289.04298 z "
         style="fill:#e10807;fill-opacity:1;stroke:none;stroke-width:50;stroke-miterlimit:4;stroke-opacity:1" />
      <use
         height="780.35999"
         width="690.09003"
         transform="matrix(-1,0,0,1,672.5295,0)"
         id="use10185"
         xlink:href="#path10182"
         y="0"
         x="0" />
      <use
         height="780.35999"
         width="690.09003"
         transform="matrix(1,0,0,-1,2,752.2686)"
         id="use10187"
         xlink:href="#path10182"
         y="0"
         x="0" />
      <use
         height="780.35999"
         width="690.09003"
         transform="matrix(-1,0,0,-1,672.5295,750.2686)"
         id="use10189"
         xlink:href="#path10182"
         y="0"
         x="0" />
      <g
         id="g10315">
        <path
           sodipodi:type="arc"
           style="fill:#e10807;fill-opacity:1;stroke:none;stroke-width:50;stroke-miterlimit:4;stroke-dasharray:none;stroke-opacity:1"
           id="path10178"
           sodipodi:cx="1048"
           sodipodi:cy="423.35999"
           sodipodi:rx="145"
           sodipodi:ry="145"
           d="M 1193 423.35999 A 145 145 0 1 1  903,423.35999 A 145 145 0 1 1  1193 423.35999 z"
           transform="matrix(0.533507,0,0,0.533507,-221.9067,151.1518)" />
        <path
           style="fill:#e10807;fill-opacity:1;stroke:none;stroke-width:50;stroke-miterlimit:4;stroke-opacity:1"
           d="M 401.68397,393.06892 C 379.79469,393.79633 388.30511,388.90576 376.05389,376.67387 C 387.9398,364.44197 377.05066,359.37388 398.93994,358.64648 C 423.23462,357.13198 397.78726,358.78219 441.05296,375.20435 C 399.98153,392.6715 424.3854,392.31454 401.68397,393.06892 z "
           id="path10191"
           sodipodi:nodetypes="ccccc" />
        <use
           x="0"
           y="0"
           xlink:href="#path10191"
           id="use10193"
           transform="matrix(7.34547e-18,-1,1,7.34547e-18,-40.1181,714.225)"
           width="690.09003"
           height="780.35999" />
        <use
           x="0"
           y="0"
           xlink:href="#path10191"
           id="use10195"
           transform="matrix(-1,0,0,1,674.1068,0)"
           width="690.09003"
           height="780.35999" />
        <use
           x="0"
           y="0"
           xlink:href="#use10193"
           id="use10197"
           transform="matrix(1,0,0,-1,0,753.3432)"
           width="690.09003"
           height="780.35999" />
      </g>
    </g>
  </g>
</svg>

<svg xmlns="http://www.w3.org/2000/svg" xmlns:xlink="http://www.w3.org/1999/xlink" width="690.09" height="780.36" version="1.0"><path d="m17.225 22.785 652.857 1.21-50.525 538.818c-36.781 269.036-527.377 272.17-554.338.055L17.225 22.785z" style="fill:#ebebeb;fill-opacity:1;fill-rule:evenodd;stroke:none;stroke-width:12.81259823;stroke-linecap:butt;stroke-linejoin:miter;stroke-miterlimit:4;stroke-dasharray:none;stroke-opacity:1"/><path style="fill:none;fill-opacity:.75;fill-rule:evenodd;stroke:#03995c;stroke-width:50;stroke-linecap:butt;stroke-linejoin:miter;stroke-miterlimit:4;stroke-dasharray:none;stroke-opacity:1" d="M242.607 22.026v256.086H41.154M335.512 22.342v741.047M49.497 374.623h585.485"/><path style="fill:none;fill-opacity:.75;fill-rule:evenodd;stroke:#03995c;stroke-width:50.00000381;stroke-linecap:butt;stroke-linejoin:miter;stroke-miterlimit:4;stroke-dasharray:none;stroke-opacity:1" d="M430.933 21.826v256.27h212.273"/><path style="fill:none;fill-opacity:.75;fill-rule:evenodd;stroke:#03995c;stroke-width:49.99999619;stroke-linecap:butt;stroke-linejoin:miter;stroke-miterlimit:4;stroke-dasharray:none;stroke-opacity:1" d="M242.085 754.703v-283.3H60.632"/><path style="fill:none;fill-opacity:.75;fill-rule:evenodd;stroke:#03995c;stroke-width:50;stroke-linecap:butt;stroke-linejoin:miter;stroke-miterlimit:4;stroke-dasharray:none;stroke-opacity:1" d="M432.412 753.193V472.658h196.273"/><path d="m18.58 24.335 652.857 1.21-50.526 538.818c-36.781 269.036-527.377 272.17-554.338.055L18.58 24.335z" style="fill:none;fill-opacity:1;fill-rule:evenodd;stroke:#000;stroke-width:12.81259823;stroke-linecap:butt;stroke-linejoin:miter;stroke-miterlimit:4;stroke-dasharray:none;stroke-opacity:1"/><path id="a" d="M510.754 289.043c-25.903 27.962-64.807 7.74-97.191 5.504-2.685-31.935-20.425-62.503 5.478-90.465 27.75-32.035 70.397-16.036 140.345-59.517-36.779 74.208-21.767 115.478-48.632 144.478z" style="fill:#e10807;fill-opacity:1;stroke:none;stroke-width:50;stroke-miterlimit:4;stroke-opacity:1"/><use height="780.36" width="690.09" transform="matrix(-1 0 0 1 672.53 0)" xlink:href="#a"/><use height="780.36" width="690.09" transform="matrix(1 0 0 -1 2 752.269)" xlink:href="#a"/><use height="780.36" width="690.09" transform="rotate(180 336.265 375.134)" xlink:href="#a"/><g><path style="fill:#e10807;fill-opacity:1;stroke:none;stroke-width:50;stroke-miterlimit:4;stroke-dasharray:none;stroke-opacity:1" d="M1193 423.36a145 145 0 1 1-290 0 145 145 0 1 1 290 0z" transform="matrix(.5335 0 0 .5335 -221.907 151.152)"/><path style="fill:#e10807;fill-opacity:1;stroke:none;stroke-width:50;stroke-miterlimit:4;stroke-opacity:1" d="M401.684 393.069c-21.89.727-13.379-4.163-25.63-16.395 11.886-12.232.997-17.3 22.886-18.028 24.295-1.514-1.153.136 42.113 16.558-41.071 17.467-16.668 17.11-39.369 17.865z" id="b"/><use x="0" y="0" xlink:href="#b" id="c" transform="rotate(-90 337.053 377.172)" width="690.09" height="780.36"/><use xlink:href="#b" transform="matrix(-1 0 0 1 674.107 0)" width="690.09" height="780.36"/><use xlink:href="#c" transform="matrix(1 0 0 -1 0 753.343)" width="690.09" height="780.36"/></g></svg>
